X:SSF 14-18 25
M:6/8
K:D
P:A
A| dfd ecA BcB AFE |1,3 DED FDG DAD BDc :|2,4 DFD GDG ABc d2 :|
P:B
c| BFA BFA Bde fed |1,3 BFA BFA cBA FA :|2,4 B2B cBA FAc B2A :|

% Into...

